X: 8
T: James Kelly's
Z: Abram 
S: https://thesession.org/tunes/1492#setting26842
R: slip jig
M: 9/8
L: 1/8
K: Dmaj
F2A A2B A3|F2A A2A Bcd|F2A A2B A3|e2f e2d B2A:|
f2a a2f d3|e2f e2d B2A|f2a a2f d3|e/f/g2 ef2 dB2|
f2a a2f d3|e2f e2d B2A|f2d e2c d3|B2=c B2A FED|
